svgs/sharp-solid/inbox-full.svg

<svg xmlns="http://www.w3.org/2000/svg" viewBox="0 0 512 512"><!--! Font Awesome Pro 6.6.0 by @fontawesome - https://fontawesome.com License - https://fontawesome.com/license (Commercial License) Copyright 2024 Fonticons, Inc. --><path d="M71 32l25 0 320 0 25 0L447 56.2l64 256 1 3.8 0 3.9 0 128 0 32-32 0L32 480 0 480l0-32L0 320l0-3.9 1-3.8 64-256L71 32zm50 64L73 288l71 0 32 64 160 0 32-64 71 0L391 96 121 96zm55 48l160 0 16 0 0 32-16 0-160 0-16 0 0-32 16 0zm-32 80l224 0 16 0 0 32-16 0-224 0-16 0 0-32 16 0z"/></svg>

<svg xmlns="http://www.w3.org/2000/svg" viewBox="0 0 512 512"><!--! Font Awesome Pro 6.5.2 by @fontawesome - https://fontawesome.com License - https://fontawesome.com/license (Commercial License) Copyright 2024 Fonticons, Inc. --><path d="M71 32H96 416h25L447 56.2l64 256 1 3.8V320 448v32H480 32 0V448 320v-3.9l1-3.8 64-256L71 32zm50 64L73 288h71l32 64H336l32-64h71L391 96H121zm55 48H336h16v32H336 176 160V144h16zm-32 80H368h16v32H368 144 128V224h16z"/></svg>
